X:34
T:Butterfly, The
R:slip jig
S:https://thesession.org/tunes/10
M:9/8
L:1/8
Z:Jeremy
K:Eminor
|:B2E G2E F3|B2E G2E FED|B2E G2E F3|B2d d2B AFD:|
|:B2d e2f g3|B2d g2e dBA|B2d e2f g2a|b2a g2e dBA:|
|:B3 B2A G2A|B3 BAB dBA|B3 B2A G2A|B2d g2e dBA:|

